X:1
T:His Word Was with Power
T:His Word Was with Power
T:Howard E. Smith
T:Eliza Edmunds Hewitt, 1900
T:Public Domain Courtesy of the Cyber Hymnal™
T:Public Domain Courtesy of the Cyber Hymnal™
C:Howard E. Smith
Z:Public Domain
Z:Courtesy of the Cyber Hymnal™
%%score ( 1 2 ) 3
L:1/8
Q:1/4=107
M:4/4
K:C
V:1 treble 
V:2 treble 
V:3 bass 
V:1
 [EG] | [EG]2 [CE]>[DF] [EG]2 [EG]>[EG] | [FA]2 [Ac]>[FA] [EG]3 [EG] | %3
w: 1.~There’s|power, might- y power in the|word of the King; He|
w: 2.~There’s|power, might- y power in the|par- don- ing word; He|
w: 3.~There’s|power, might- y power in the|word of the Lord, And|
 [Ec]2 [Gc]>[Gc] [^Fc]2 [FB]>[Fc] | [Gd]6 z [FG] | [EG]2 [CE]>[DF] [EG]2 [EG]>[EG] | %6
w: speaks, and the cap- tive is|free; The|lips of the dumb with re-|
w: said, “Go, and sin now no|more!” How|sweet was the hour when for-|
w: strength He will give, when we|pray, To|fol- low His foot- steps, His|
 [FA]2 [Ac]>[FA] [EG]3 [EG] | [FA]2 [^FB]>[Fc] [Gd]2 G>[=Fd] | [Ec]6 ||"^Refrain" [Ge]>[Fd] | %10
w: joic- ing shall sing; O|speak, bless- èd Sav- ior, to|me!||
w: give- ness I heard, And|mer- cy had o- pened the|door!|O the|
w: good- ness re- cord, And|walk in love’s beau- ti- ful|way.||
 [Ec]6 [Ec]>[GB] | [FA]6 [FA]>[FA] | [EG]2 [Gc]>[Gc] [^Fc]2 [Fd]>[Fe] | [Gd]6 [Ge]>[Fd] | %14
w: ||||
w: power, might- y|power, In the|word of my Sav- ior and|king! O the|
w: ||||
 [Ec]6 [Ec]>[GB] | [FA]6 [^DA]2 | [EG]2 [Ec]>[Ec] [FB]2 [Ec]>[Fd] | [Ec]6 z |] %18
w: ||||
w: power, might- y|power! For|Je- sus sal- va- tion shall|bring.|
w: ||||
V:2
 x | x8 | x8 | x8 | x8 | x8 | x8 | x6 G3/2 x/ | x6 || x2 | x8 | x8 | x8 | x8 | x8 | x8 | x8 | x7 |] %18
V:3
 [C,C] | [C,C]2 [C,G,]>[C,G,] [C,C]2 [C,C]>[C,C] | [F,C]2 [F,C]>[F,C] [C,C]3 [C,C] | %3
w: ~|~ ~ ~ ~ ~ ~|~ ~ ~ ~ ~|
 [C,C]2 [C,C]>[C,C] [D,D]2 [D,D]>[D,C] | [G,B,]6 z [G,B,] | %5
w: ~ ~ ~ ~ ~ ~|~ ~|
 [C,C]2 [C,G,]>[C,G,] [C,C]2 [C,C]>[C,C] | [F,C]2 [F,C]>[F,C] [C,C]3 [C,C] | %7
w: ~ ~ ~ ~ ~ ~|~ ~ ~ ~ ~|
 [F,C]2 [F,D]>[F,C] [G,B,]2 [G,B,]>[G,B,] | [C,C]6 || z2 | z2 [C,C]>[C,C] [C,C]2 z2 | %11
w: ~ ~ ~ ~ ~ ~|~||O the pow’r,|
 z2 [F,C]>[F,C] [F,C]2 [F,C]>[F,C] | [C,C]2 [E,C]>[E,C] [D,D]2 [D,D]>[D,C] | [G,B,]6 z2 | %14
w: might- y pow’r ~ ~|~ ~ ~ ~ ~ ~|~|
 z2 [C,C]>[C,C] [C,C]2 z2 | z2 [F,C]>[F,C] [F,C]2 [^F,C]2 | %16
w: O the pow’r,|might- y pow’r *|
 [G,C]2 [G,C]>[G,C] [G,D]2 [G,C]>[G,B,] | [C,C]6 z |] %18
w: ||

